X:16
T:Jockey To The Fair. JBs.016
S:Jas.Blackshaw MS, 1837, N.Shropshire
Z:Tony Weatherall 2006
M:6/8
L:1/8
Q:3/8=100
A:North Shropshire
R:Jig
K:C
G|c2de2f|g2câ€™g2f|egc cBc|d/e/f ed2g|!
g^fg gacâ€™|bdâ€™b a2câ€™|bag dg^f|g3g2:|!
|:g|dâ€™bg dâ€™bg|f2fe2g|gcâ€™g gcâ€™g|f2fe2e|!
a2 bcâ€™2b|a2be2a|a^gae2d|c2BA2B|c2cc2e|!
a3câ€™3|gec d2e|A2Bc2d|e2câ€™ (efd)|c3c2:|

